!!!OTL: Jaegers Morgenbesuch
!!!ARE: Europa, Mitteleuropa, Deutschland
!!!SCT: A0440
!!!YEM: Copyright 1995, estate of Helmut Schaffrath.
**kern
*ICvox
*Ivox
*M6/2
*k[b-e-]
*g:
{2dd
=1
1dd
2dd
1dd
2dd
=2
1.ffn
1.b-}
=3
{1dd
2dd
2ffn
1ee-
=4
1.dd
1r}
{2dd
=5
1dd
2dd
1ffn
2ffn
=6
1.b-
1.dd}
=7
{1cc
2cc
2cc
2cc
2a
=8
2b-
1g
1fn
2r}
=9
{1dd
2dd
1.ffn
=10
1ee-
2ee-
1dd
2b-
=11
2cc
1a
1g
2r}
=12
{1dd
2b-
2cc
1a
=13
1.g
1r}
==
!!!AGN: Romanze, Ballade, Lied, Jaegerlied
!! Ott III 1544 No. 15 und 97.
!!!ONB: ESAC (Essen Associative Code) Database: ALTDEU
!!!AMT: compound duple
!!!AIN: vox
!!!EED: Helmut Schaffrath
!!!EEV: 1.0
*-
